X: 3296
T: MY MITHER'S AYE GLOWERIN OWRE ME
%R: jig
B: James Kerr "Merry Melodies" v.3 p.32 #296
Z: 2016 John Chambers <jc:trillian.mit.edu>
M: 6/8
L: 1/8
K: Em
uB, |\
EFE u^D2uB, | G3 FGA | BcB A2G | d3 B2e |\
dBG GdB | AFD DBA | GFE F^DB, | G3 F2 :|
|: B |\
efe ^d2B | efg f2e | dcB BAG | d3 B2e |\
dBG GdB | AFD DBA | GFE F^DB, | G3 F2 :|

%%sep 1 1 500
%%sep 1 1 500

